;FLAVOR:Marlin
;TIME:345
;Filament used: 0.284098m
;Layer height: 0.2
;MINX:95.5
;MINY:95.5
;MINZ:0.3
;MAXX:124.5
;MAXY:124.5
;MAXZ:3.5
;Generated with Cura_SteamEngine 5.2.1
M140 S60
M105
M190 S60
M104 S185
M105
M109 S185
M82 ;absolute extrusion mode
G28 ;Home

G92 E0 ;Reset Extruder
G1 Z2.0 F3000 ;Move Z Axis up
G1 X10.1 Y20 Z0.28 F5000.0 ;Move to start position
G1 X10.1 Y200.0 Z0.28 F1500.0 E15 ;Draw the first line
G1 X10.4 Y200.0 Z0.28 F5000.0 ;Move to side a little
G1 X10.4 Y20 Z0.28 F1500.0 E30 ;Draw the second line
G92 E0 ;Reset Extruder
G1 Z2.0 F3000 ;Move Z Axis up

G92 E0
G92 E0
G1 F1800 E-0.5
;LAYER_COUNT:17
;LAYER:0
M107
M205 X10 Y10
G1 F600 Z0.7
G0 F6000 X96.918 Y96.738 Z0.7
M205 X5 Y5
;TYPE:SKIRT
G1 F600 Z0.3
G1 F1800 E0
G1 X97.381 Y96.356 E0.04492
G1 X97.89 Y96.039 E0.08979
G1 X98.436 Y95.793 E0.13461
G1 X99.011 Y95.621 E0.17952
G1 X99.97 Y95.5 E0.25186
G1 X119.357 Y95.5 E1.70269
G1 X120.055 Y95.51 E1.75493
G1 X120.653 Y95.559 E1.79983
G1 X121.239 Y95.687 E1.84472
G1 X121.803 Y95.891 E1.8896
G1 X122.334 Y96.168 E1.93442
G1 X122.824 Y96.514 E1.97931
G1 X123.264 Y96.922 E2.02422
G1 X123.646 Y97.384 E2.06908
G1 X123.962 Y97.894 E2.11398
G1 X124.208 Y98.441 E2.15886
G1 X124.38 Y99.015 E2.20371
G1 X124.5 Y99.971 E2.27581
G1 X124.5 Y119.32 E3.7238
G1 X124.491 Y120.047 E3.77821
G1 X124.443 Y120.644 E3.82303
G1 X124.317 Y121.231 E3.86796
G1 X124.114 Y121.795 E3.91281
G1 X123.837 Y122.327 E3.9577
G1 X123.492 Y122.818 E4.00261
G1 X123.085 Y123.258 E4.04746
G1 X122.624 Y123.641 E4.09231
G1 X122.115 Y123.958 E4.13719
G1 X121.569 Y124.205 E4.18204
G1 X120.994 Y124.378 E4.22697
G1 X120.03 Y124.5 E4.29969
G1 X100.649 Y124.5 E5.75007
G1 X99.951 Y124.491 E5.80231
G1 X99.353 Y124.443 E5.84721
G1 X98.767 Y124.316 E5.89208
G1 X98.203 Y124.113 E5.93694
G1 X97.671 Y123.836 E5.98182
G1 X97.181 Y123.491 E6.02667
G1 X96.74 Y123.084 E6.07158
G1 X96.358 Y122.622 E6.11644
G1 X96.041 Y122.113 E6.16131
G1 X95.794 Y121.566 E6.20623
G1 X95.622 Y120.992 E6.25107
G1 X95.5 Y120.026 E6.32394
G1 X95.5 Y100.613 E7.77671
G1 X95.509 Y99.948 E7.82648
G1 X95.557 Y99.35 E7.87138
G1 X95.685 Y98.764 E7.91627
G1 X95.888 Y98.2 E7.96112
G1 X96.166 Y97.669 E8.00598
G1 X96.511 Y97.178 E8.05089
G1 X96.918 Y96.738 E8.09574
M205 X10 Y10
G0 F6000 X97.503 Y97.02
M205 X5 Y5
G1 F1800 X97.956 Y96.693 E8.13755
G1 X98.45 Y96.434 E8.17929
G1 X98.976 Y96.248 E8.22104
G1 X99.524 Y96.139 E8.26286
G1 X100.33 Y96.1 E8.32324
G1 X119.349 Y96.1 E9.74654
G1 X120.047 Y96.11 E9.79878
G1 X120.603 Y96.158 E9.84054
G1 X121.147 Y96.285 E9.88235
G1 X121.667 Y96.488 E9.92412
G1 X122.152 Y96.764 E9.96588
G1 X122.594 Y97.105 E10.00766
G1 X122.982 Y97.507 E10.04947
G1 X123.308 Y97.959 E10.09117
G1 X123.567 Y98.454 E10.13298
G1 X123.753 Y98.98 E10.17473
G1 X123.861 Y99.528 E10.21653
G1 X123.9 Y100.33 E10.27662
G1 X123.9 Y119.312 E11.69714
G1 X123.891 Y120.039 E11.75155
G1 X123.844 Y120.596 E11.79339
G1 X123.718 Y121.139 E11.8351
G1 X123.516 Y121.66 E11.87692
G1 X123.242 Y122.146 E11.91867
G1 X122.901 Y122.588 E11.96045
G1 X122.5 Y122.977 E12.00226
G1 X122.048 Y123.304 E12.04401
G1 X121.554 Y123.564 E12.08578
G1 X121.028 Y123.751 E12.12756
G1 X120.481 Y123.86 E12.1693
G1 X119.67 Y123.9 E12.23006
G1 X100.657 Y123.9 E13.65291
G1 X99.959 Y123.891 E13.70515
G1 X99.402 Y123.844 E13.74698
G1 X98.859 Y123.718 E13.78869
G1 X98.338 Y123.515 E13.83054
G1 X97.852 Y123.241 E13.87229
G1 X97.411 Y122.899 E13.91405
G1 X97.022 Y122.499 E13.95581
G1 X96.695 Y122.047 E13.99756
G1 X96.435 Y121.552 E14.0394
G1 X96.249 Y121.026 E14.08115
G1 X96.14 Y120.479 E14.12289
G1 X96.101 Y119.981 E14.16027
G1 X96.1 Y100.621 E15.60908
G1 X96.109 Y99.956 E15.65885
G1 X96.157 Y99.4 E15.70062
G1 X96.283 Y98.856 E15.74241
G1 X96.486 Y98.336 E15.78418
G1 X96.761 Y97.85 E15.82597
G1 X97.102 Y97.409 E15.86769
G1 X97.503 Y97.02 E15.9095
M205 X10 Y10
G0 F6000 X98.084 Y97.329
M205 X5 Y5
G1 F1800 X98.523 Y97.062 E15.94795
G1 X98.998 Y96.868 E15.98635
G1 X99.498 Y96.749 E16.02481
G1 X100.014 Y96.701 E16.06359
G1 X119.34 Y96.7 E17.50986
G1 X120.038 Y96.71 E17.5621
G1 X120.55 Y96.758 E17.60058
G1 X121.047 Y96.884 E17.63895
G1 X121.519 Y97.085 E17.67734
G1 X121.955 Y97.358 E17.71584
G1 X122.342 Y97.694 E17.75419
G1 X122.673 Y98.087 E17.79264
G1 X122.939 Y98.526 E17.83106
G1 X123.133 Y99.002 E17.86952
G1 X123.252 Y99.501 E17.90791
G1 X123.299 Y100.015 E17.94654
G1 X123.3 Y119.305 E19.39011
G1 X123.291 Y120.032 E19.44452
G1 X123.244 Y120.543 E19.48292
G1 X123.119 Y121.041 E19.52135
G1 X122.919 Y121.514 E19.55978
G1 X122.647 Y121.949 E19.59817
G1 X122.311 Y122.338 E19.63664
G1 X121.919 Y122.669 E19.67503
G1 X121.48 Y122.936 E19.71349
G1 X121.006 Y123.131 E19.75184
G1 X120.506 Y123.251 E19.79032
G1 X119.986 Y123.299 E19.8294
G1 X100.664 Y123.3 E21.27537
G1 X99.966 Y123.291 E21.32761
G1 X99.455 Y123.244 E21.36601
G1 X98.957 Y123.119 E21.40444
G1 X98.485 Y122.918 E21.44283
G1 X98.049 Y122.646 E21.48128
G1 X97.661 Y122.31 E21.5197
G1 X97.33 Y121.918 E21.55809
G1 X97.063 Y121.479 E21.59654
G1 X96.868 Y121.004 E21.63497
G1 X96.749 Y120.505 E21.67336
G1 X96.701 Y119.982 E21.71266
G1 X96.7 Y100.629 E23.16095
G1 X96.709 Y99.964 E23.21072
G1 X96.756 Y99.453 E23.24912
G1 X96.882 Y98.955 E23.28756
G1 X97.083 Y98.483 E23.32595
G1 X97.355 Y98.048 E23.36435
G1 X97.692 Y97.66 E23.40281
G1 X98.084 Y97.329 E23.4412
M205 X10 Y10
G1 F1800 E22.9412
G1 F600 Z0.7
;MESH:HuecoTestHSS.stl
G0 F6000 X101.525 Y103.05 Z0.7
M205 X5 Y5
;TYPE:WALL-INNER
G1 F600 Z0.3
G1 F1800 E23.4412
G1 F1294.5 X101.713 Y102.471 E23.49663
G1 F1429.7 X102.021 Y102.021 E23.54159
G1 F1416.8 X102.47 Y101.708 E23.58712
G1 F1263.4 X102.785 Y101.536 E23.6206
G1 X102.419 Y101.461 E23.65546
G1 F1416.8 X101.456 Y101.456 E23.73557
G1 F1429.7 X101.455 Y102.418 E23.81488
G1 F1294.5 X101.525 Y103.05 E23.87278
M205 X10 Y10
G0 F6000 X102.222 Y117.778
G0 X103.05 Y118.475
M205 X5 Y5
G1 F1294.5 X102.471 Y118.287 E23.92821
G1 F1429.7 X102.021 Y117.979 E23.97316
G1 F1416.8 X101.708 Y117.53 E24.0187
G1 F1263.4 X101.536 Y117.215 E24.05218
G1 X101.461 Y117.581 E24.08704
G1 F1416.8 X101.456 Y118.544 E24.16715
G1 F1429.7 X102.418 Y118.545 E24.24646
G1 F1294.5 X103.05 Y118.475 E24.30436
M205 X10 Y10
G0 F6000 X117.215 Y118.464
M205 X5 Y5
G1 F1261.7 X117.581 Y118.539 E24.33926
G1 F1414.7 X118.545 Y118.545 E24.41958
G1 X118.539 Y117.581 E24.4999
G1 F1263.4 X118.464 Y117.215 E24.53475
G1 X118.292 Y117.53 E24.56824
G1 F1414.7 X117.979 Y117.979 E24.61384
G1 X117.53 Y118.292 E24.65944
G1 F1261.7 X117.215 Y118.464 E24.69297
M205 X10 Y10
G0 F6000 X117.778 Y117.778
G0 X118.475 Y103.05
M205 X5 Y5
G1 F1292.7 X118.545 Y102.418 E24.75094
G1 F1427.5 X118.545 Y101.455 E24.83045
G1 X117.582 Y101.455 E24.90997
G1 F1292.7 X116.95 Y101.525 E24.96794
G1 X117.529 Y101.713 E25.02345
G1 F1427.5 X117.979 Y102.021 E25.06847
G1 X118.287 Y102.471 E25.1135
G1 F1292.7 X118.475 Y103.05 E25.169
M205 X10 Y10
G0 F6000 X117.778 Y117.778
G0 X103.05 Y117.85
G0 X103.05 Y117.812
M205 X5 Y5
G1 F1800 X102.707 Y117.742 E25.19192
G1 X102.44 Y117.56 E25.21308
G1 F1803.4 X102.259 Y117.292 E25.23422
G1 X102.188 Y117.06 E25.25007
G1 F1800 X102.188 Y103.05 E26.16746
G1 X102.258 Y102.707 E26.19038
G1 X102.44 Y102.44 E26.21154
G1 F1803.4 X102.708 Y102.259 E26.23268
G1 X102.94 Y102.188 E26.24854
G1 F1800 X116.95 Y102.188 E27.16592
G1 X117.293 Y102.258 E27.18885
G1 X117.56 Y102.44 E27.21
G1 X117.742 Y102.707 E27.23116
G1 X117.812 Y103.05 E27.25409
G1 X117.812 Y117.06 E28.17147
G1 F1803.4 X117.741 Y117.292 E28.18733
G1 X117.56 Y117.56 E28.20847
G1 X117.292 Y117.741 E28.2296
G1 X117.099 Y117.8 E28.24279
G1 F1800 X116.95 Y117.812 E28.25258
G1 X103.05 Y117.812 E29.16276
M205 X10 Y10
G0 F6000 X103.05 Y118.475
M205 X5 Y5
G1 F1181.2 X116.95 Y118.475 E30.54971
G1 F1163.8 X117.215 Y118.464 E30.57657
M205 X10 Y10
G0 F6000 X118.464 Y117.215
M205 X5 Y5
G1 F1165.2 X118.475 Y116.95 E30.6034
G1 F1181.2 X118.475 Y103.05 E31.99035
M205 X10 Y10
G0 F6000 X117.778 Y102.222
G0 X102.222 Y102.222
G0 X101.525 Y103.05
M205 X5 Y5
G1 F1181.2 X101.525 Y116.95 E33.3773
G1 F1163.8 X101.536 Y117.215 E33.40416
M205 X10 Y10
G0 F6000 X102.837 Y117.163
M205 X5 Y5
;TYPE:WALL-OUTER
G1 F1800 X102.754 Y117.002 E33.41771
G1 X102.75 Y103.05 E34.46182
G1 X102.837 Y102.837 E34.47904
G1 X102.998 Y102.754 E34.49259
G1 X117.046 Y102.75 E35.54388
G1 X117.25 Y102.954 E35.56547
G1 X117.246 Y117.002 E36.61675
G1 X117.163 Y117.163 E36.63031
G1 X117.002 Y117.246 E36.64386
G1 X103.05 Y117.25 E37.68797
G1 X102.837 Y117.163 E37.70518
M205 X10 Y10
G0 F6000 X102.15 Y117.163
G0 X100.9 Y119.137
G0 X100.863 Y119.137
M205 X5 Y5
;TYPE:WALL-INNER
G1 F1800 X119.138 Y119.138 E38.90185
G1 X119.138 Y100.862 E40.09858
G1 X117.582 Y100.862 E40.20046
G1 X100.863 Y100.863 E41.29524
G1 X100.863 Y119.137 E42.49184
M205 X10 Y10
G0 F6000 X100.301 Y119.699
M205 X5 Y5
;TYPE:WALL-OUTER
G1 F1800 X119.7 Y119.7 E43.94357
G1 X119.7 Y100.3 E45.39537
G1 X117.582 Y100.3 E45.55387
G1 X100.301 Y100.301 E46.8471
G1 X100.301 Y119.699 E48.29876
M205 X10 Y10
G0 F6000 X100.87 Y119.13
G0 X102.222 Y102.222
G0 X102.785 Y101.536
M205 X5 Y5
;TYPE:WALL-INNER
G1 F1163.8 X103.05 Y101.525 E48.32562
G1 F1181.2 X116.95 Y101.525 E49.71257
M205 X10 Y10
;MESH:NONMESH
G0 F600 X116.95 Y101.525 Z0.5
G0 F6000 X102.222 Y102.222
G0 X100.926 Y119.074
;TIME_ELAPSED:33.023356
;LAYER:1
M106 S255
M205 X5 Y5
;TYPE:WALL-INNER
;MESH:HuecoTestHSS.stl
G1 F1800 X119.075 Y119.075 E50.24075
G1 X119.075 Y101.787 E50.74388
G1 X119.075 Y100.925 E50.76896
G1 X100.926 Y100.926 E51.29715
G1 X100.926 Y119.074 E51.8253
M205 X10 Y10
G0 F9000 X100.576 Y119.424
M205 X5 Y5
G1 F1800 X119.425 Y119.425 E52.37386
G1 X119.425 Y101.787 E52.88717
G1 X119.425 Y100.575 E52.92244
G1 X100.576 Y100.576 E53.471
G1 X100.576 Y119.424 E54.01952
M205 X10 Y10
G0 F9000 X100.201 Y119.799
M205 X5 Y5
;TYPE:WALL-OUTER
G1 F1650 X119.8 Y119.8 E54.67139
G1 X119.8 Y101.787 E55.2705
G1 X119.8 Y100.2 E55.32329
G1 X100.201 Y100.201 E55.97515
G1 X100.201 Y119.799 E56.62698
M205 X10 Y10
G0 F9000 X100.47 Y119.53
G0 X103.05 Y117.875
M205 X5 Y5
;TYPE:WALL-INNER
G1 F1800 X102.682 Y117.8 E56.63791
G1 X102.395 Y117.605 E56.64801
G1 X102.2 Y117.318 E56.65811
G1 X102.125 Y117.066 E56.66576
G1 X102.125 Y103.05 E57.07366
G1 X102.2 Y102.682 E57.08459
G1 X102.395 Y102.395 E57.09469
G1 X102.682 Y102.2 E57.10479
G1 X102.934 Y102.125 E57.11244
G1 X116.95 Y102.125 E57.52034
G1 X117.318 Y102.2 E57.53127
G1 X117.604 Y102.396 E57.54136
G1 X117.8 Y102.682 E57.55145
G1 X117.875 Y103.05 E57.56238
G1 X117.875 Y117.066 E57.97029
G1 X117.8 Y117.318 E57.97794
G1 X117.604 Y117.604 E57.98803
G1 X117.318 Y117.8 E57.99812
G1 X117.11 Y117.862 E58.00443
G1 X116.95 Y117.875 E58.00911
G1 X103.05 Y117.875 E58.41363
M205 X10 Y10
G0 F9000 X103.05 Y117.525
M205 X5 Y5
G1 F1800 X102.821 Y117.478 E58.42044
G1 X102.643 Y117.357 E58.4267
G1 X102.522 Y117.179 E58.43296
G1 X102.475 Y117.024 E58.43768
G1 X102.475 Y103.05 E58.84436
G1 X102.522 Y102.821 E58.85116
G1 X102.643 Y102.643 E58.85742
G1 X102.821 Y102.522 E58.86369
G1 X102.976 Y102.475 E58.8684
G1 X116.95 Y102.475 E59.27508
G1 X117.179 Y102.522 E59.28189
G1 X117.357 Y102.643 E59.28815
G1 X117.478 Y102.821 E59.29441
G1 X117.525 Y103.05 E59.30122
G1 X117.525 Y117.024 E59.7079
G1 X117.478 Y117.179 E59.71261
G1 X117.357 Y117.357 E59.71887
G1 X117.179 Y117.478 E59.72514
G1 X117.05 Y117.517 E59.72906
G1 X116.95 Y117.525 E59.73198
G1 X103.05 Y117.525 E60.13651
M205 X10 Y10
G0 F9000 X102.908 Y117.092
M205 X5 Y5
;TYPE:WALL-OUTER
G1 F1650 X102.852 Y116.985 E60.14052
G1 X102.85 Y103.05 E60.604
G1 X102.908 Y102.908 E60.6091
G1 X103.015 Y102.852 E60.61312
G1 X117.014 Y102.85 E61.07873
G1 X117.15 Y102.986 E61.08513
G1 X117.148 Y116.985 E61.55074
G1 X117.092 Y117.092 E61.55475
G1 X116.985 Y117.148 E61.55877
G1 X103.05 Y117.15 E62.02225
G1 X102.908 Y117.092 E62.02735
M205 X10 Y10
G0 F9000 X102.15 Y117.092
G0 X103.008 Y118.241
M205 X5 Y5
;TYPE:SKIN
G1 F1662.8 X102.512 Y118.09 E62.04602
G1 F1800 X102.157 Y117.843 E62.0604
G1 X101.908 Y117.486 E62.07488
G1 F1682.2 X101.769 Y117.147 E62.08792
G1 F1561.8 X101.758 Y117.122 E62.08897
G1 F1545.1 X101.759 Y103.008 E62.63586
G1 F1662.8 X101.91 Y102.512 E62.65452
G1 F1800 X102.157 Y102.157 E62.66891
G1 X102.514 Y101.908 E62.68338
G1 F1662.8 X102.878 Y101.758 E62.69756
G1 F1545.1 X116.992 Y101.759 E63.24445
G1 F1662.8 X117.489 Y101.91 E63.26315
G1 F1800 X117.843 Y102.157 E63.27751
G1 X118.089 Y102.512 E63.29187
G1 F1659 X118.241 Y103.008 E63.31059
G1 F1541.8 X118.242 Y117.126 E63.85881
G1 F1662.8 X118.092 Y117.485 E63.87282
G1 F1800 X117.843 Y117.843 E63.88732
G1 X117.485 Y118.092 E63.90183
G1 F1662.8 X117.122 Y118.242 E63.91597
G1 F1545.1 X103.008 Y118.241 E64.46286
M205 X10 Y10
G0 F9000 X101.263 Y118.737
M205 X5 Y5
G1 F1800 X102.522 Y118.736 E64.50473
G1 F1662.8 X102.961 Y118.704 E64.52058
G1 F1545.1 X117.162 Y118.704 E65.07084
G1 F1651.4 X117.519 Y118.734 E65.08383
G1 F1786.6 X118.738 Y118.738 E65.12468
G1 X118.735 Y117.521 E65.16546
G1 F1651.4 X118.705 Y117.166 E65.17838
G1 F1541.8 X118.704 Y102.961 E65.72997
G1 F1659 X118.738 Y102.522 E65.74586
G1 F1800 X118.738 Y101.787 E65.77031
G1 X118.738 Y101.262 E65.78777
G1 X117.478 Y101.262 E65.82968
G1 F1662.8 X117.039 Y101.296 E65.84553
G1 F1545.1 X102.838 Y101.295 E66.39579
G1 F1651.4 X102.481 Y101.266 E66.40878
G1 F1786.6 X101.263 Y101.263 E66.44959
G1 F1800 X101.264 Y102.522 E66.49147
G1 F1662.8 X101.296 Y102.961 E66.50732
G1 F1545.1 X101.296 Y117.162 E67.05758
G1 F1651.4 X101.266 Y117.519 E67.07057
G1 F1786.6 X101.263 Y118.737 E67.11138
M205 X10 Y10
G0 F9000 X101.463 Y101.617
M205 X5 Y5
G1 F1800 X101.617 Y101.463 E67.11862
M205 X10 Y10
G0 F9000 X102.179 Y101.466
M205 X5 Y5
G1 F1800 X101.463 Y102.183 E67.15233
M205 X10 Y10
G0 F9000 X101.701 Y102.51
M205 X5 Y5
G1 F1800 X101.493 Y102.718 E67.16211
M205 X10 Y10
G0 F9000 X102.536 Y101.676
M205 X5 Y5
G1 F1800 X102.706 Y101.505 E67.17013
M205 X10 Y10
G0 F9000 X117.292 Y101.627
M205 X5 Y5
G1 F1800 X117.456 Y101.464 E67.17782
M205 X10 Y10
G0 F9000 X117.682 Y101.803
M205 X5 Y5
G1 F1800 X118.024 Y101.461 E67.19391
M205 X10 Y10
G0 F9000 X118.537 Y101.514
M205 X5 Y5
G1 F1800 X118.005 Y102.046 E67.21893
M205 X10 Y10
G0 F9000 X118.239 Y102.377
M205 X5 Y5
G1 F1800 X118.537 Y102.08 E67.23292
M205 X10 Y10
G0 F9000 X118.514 Y102.668
M205 X5 Y5
G1 F1800 X118.4 Y102.782 E67.23829
M205 X10 Y10
G0 F9000 X118.507 Y117.383
M205 X5 Y5
G1 F1800 X118.167 Y117.723 E67.25428
M205 X10 Y10
G0 F9000 X118.537 Y117.919
M205 X5 Y5
G1 F1800 X117.922 Y118.533 E67.28318
M205 X10 Y10
G0 F9000 X117.724 Y118.166
M205 X5 Y5
G1 F1800 X117.382 Y118.508 E67.29927
M205 X10 Y10
G0 F9000 X102.782 Y118.4
M205 X5 Y5
G1 F1800 X102.669 Y118.513 E67.30458
M205 X10 Y10
G0 F9000 X102.378 Y118.238
M205 X5 Y5
G1 F1800 X102.081 Y118.535 E67.31855
M205 X10 Y10
G0 F9000 X102.046 Y118.004
M205 X5 Y5
G1 F1800 X101.515 Y118.536 E67.34355
M205 X10 Y10
G0 F9000 X101.466 Y118.019
M205 X5 Y5
G1 F1800 X101.802 Y117.683 E67.35936
M205 X10 Y10
G0 F9000 X101.482 Y117.437
M205 X5 Y5
G1 F1800 X101.604 Y117.316 E67.36507
M205 X10 Y10
;MESH:NONMESH
G0 F600 X101.604 Y117.316 Z0.7
G0 F9000 X100.926 Y119.074
;TIME_ELAPSED:56.804918
;LAYER:2
M205 X5 Y5
;TYPE:WALL-INNER
;MESH:HuecoTestHSS.stl
G1 F1800 X119.075 Y119.075 E67.89326
G1 X119.075 Y101.787 E68.39638
G1 X119.075 Y100.925 E68.42147
G1 X100.926 Y100.926 E68.94965
G1 X100.926 Y119.074 E69.47781
M205 X10 Y10
G0 F12000 X100.576 Y119.424
M205 X5 Y5
G1 F1800 X119.425 Y119.425 E70.02636
G1 X119.425 Y101.787 E70.53968
G1 X119.425 Y100.575 E70.57495
G1 X100.576 Y100.576 E71.1235
G1 X100.576 Y119.424 E71.67203
M205 X10 Y10
G0 F12000 X100.201 Y119.799
M205 X5 Y5
;TYPE:WALL-OUTER
G1 F1500 X119.8 Y119.8 E72.32389
G1 X119.8 Y101.787 E72.92301
G1 X119.8 Y100.2 E72.97579
G1 X100.201 Y100.201 E73.62766
G1 X100.201 Y119.799 E74.27949
M205 X10 Y10
G0 F12000 X100.47 Y119.53
G0 X103.05 Y117.875
M205 X5 Y5
;TYPE:WALL-INNER
G1 F1800 X102.682 Y117.8 E74.29042
G1 X102.395 Y117.605 E74.30052
G1 X102.2 Y117.318 E74.31062
G1 X102.125 Y117.066 E74.31827
G1 X102.125 Y103.05 E74.72617
G1 X102.2 Y102.682 E74.7371
G1 X102.395 Y102.395 E74.7472
G1 X102.682 Y102.2 E74.7573
G1 X102.934 Y102.125 E74.76495
