;FLAVOR:Marlin
;TIME:7272
;Filament used: 5.89721m
;Layer height: 0.2
;MINX:81.901
;MINY:81.976
;MINZ:0.3
;MAXX:138.647
;MAXY:138.713
;MAXZ:36.5
;Generated with Cura_SteamEngine 5.2.1
M140 S60
M105
M190 S60
M104 S185
M105
M109 S185
M82 ;absolute extrusion mode
G28 ;Home

G92 E0 ;Reset Extruder
G1 Z2.0 F3000 ;Move Z Axis up
G1 X10.1 Y20 Z0.28 F5000.0 ;Move to start position
G1 X10.1 Y200.0 Z0.28 F1500.0 E15 ;Draw the first line
G1 X10.4 Y200.0 Z0.28 F5000.0 ;Move to side a little
G1 X10.4 Y20 Z0.28 F1500.0 E30 ;Draw the second line
G92 E0 ;Reset Extruder
G1 Z2.0 F3000 ;Move Z Axis up

G92 E0
G92 E0
G1 F1800 E-0.5
;LAYER_COUNT:182
;LAYER:0
M107
M205 X10 Y10
G1 F600 Z0.7
G0 F6000 X90.466 Y90.033 Z0.7
M205 X5 Y5
;TYPE:SKIRT
G1 F600 Z0.3
G1 F1800 E0
G1 X90.948 Y89.574 E0.04981
G1 X91.72 Y88.882 E0.12739
G1 X92.282 Y88.409 E0.18237
G1 X93.227 Y87.666 E0.27233
G1 X93.722 Y87.303 E0.31826
G1 X94.568 Y86.719 E0.39519
G1 X95.26 Y86.273 E0.4568
G1 X96.071 Y85.785 E0.52763
G1 X96.639 Y85.466 E0.57639
G1 X97.702 Y84.914 E0.66602
G1 X98.397 Y84.582 E0.72366
G1 X99.433 Y84.129 E0.80828
G1 X100.064 Y83.877 E0.85913
G1 X101.018 Y83.528 E0.93515
G1 X101.715 Y83.298 E0.99007
G1 X102.862 Y82.961 E1.07954
G1 X103.473 Y82.804 E1.12675
G1 X104.496 Y82.571 E1.20526
G1 X105.221 Y82.43 E1.26054
G1 X106.377 Y82.245 E1.34815
G1 X106.925 Y82.174 E1.3895
G1 X108.184 Y82.053 E1.48415
G1 X108.799 Y82.015 E1.53026
G1 X109.845 Y81.98 E1.60858
G1 X110.496 Y81.976 E1.6573
G1 X111.748 Y82.013 E1.75104
G1 X112.251 Y82.044 E1.78875
G1 X113.447 Y82.154 E1.87863
G1 X114.185 Y82.248 E1.93431
G1 X115.346 Y82.433 E2.02229
G1 X115.85 Y82.53 E2.0607
G1 X117.113 Y82.814 E2.15757
G1 X117.65 Y82.954 E2.1991
G1 X118.718 Y83.264 E2.28233
G1 X119.439 Y83.499 E2.33908
G1 X120.528 Y83.895 E2.42579
G1 X121.108 Y84.128 E2.47257
G1 X122.098 Y84.559 E2.55337
G1 X122.689 Y84.838 E2.60228
G1 X123.678 Y85.344 E2.68542
G1 X124.338 Y85.709 E2.74186
G1 X125.267 Y86.263 E2.8228
G1 X125.8 Y86.602 E2.87007
G1 X126.74 Y87.246 E2.95534
G1 X127.369 Y87.708 E3.01375
G1 X128.261 Y88.409 E3.09865
G1 X128.67 Y88.751 E3.13855
G1 X129.642 Y89.619 E3.23607
G1 X130.098 Y90.054 E3.28323
G1 X130.887 Y90.856 E3.36742
G1 X131.364 Y91.373 E3.42007
G1 X132.023 Y92.132 E3.49529
G1 X132.48 Y92.692 E3.54938
G1 X133.209 Y93.65 E3.63947
G1 X133.592 Y94.19 E3.68901
G1 X134.14 Y95.011 E3.76288
G1 X134.482 Y95.557 E3.81109
G1 X135.147 Y96.703 E3.91025
G1 X135.428 Y97.23 E3.95494
G1 X135.89 Y98.159 E4.03259
G1 X136.171 Y98.767 E4.08271
G1 X136.665 Y99.941 E4.17803
G1 X136.887 Y100.525 E4.22478
G1 X137.234 Y101.523 E4.30386
G1 X137.428 Y102.135 E4.3519
G1 X137.773 Y103.377 E4.44837
G1 X137.919 Y103.987 E4.4953
G1 X138.131 Y104.989 E4.57195
G1 X138.264 Y105.736 E4.62873
G1 X138.418 Y106.797 E4.70896
G1 X138.494 Y107.454 E4.75846
G1 X138.584 Y108.537 E4.83978
G1 X138.619 Y109.198 E4.88932
G1 X138.647 Y110.745 E5.00511
G1 X138.583 Y112.173 E5.11208
G1 X138.521 Y112.96 E5.17116
G1 X138.411 Y113.954 E5.246
G1 X138.302 Y114.725 E5.30427
G1 X138.127 Y115.727 E5.38039
G1 X137.998 Y116.359 E5.42866
G1 X137.69 Y117.636 E5.52697
G1 X137.555 Y118.126 E5.565
G1 X137.178 Y119.343 E5.66035
G1 X136.98 Y119.916 E5.70572
G1 X136.608 Y120.897 E5.78423
G1 X136.308 Y121.612 E5.84226
G1 X135.815 Y122.693 E5.93117
G1 X135.517 Y123.292 E5.98124
G1 X135.082 Y124.106 E6.0503
G1 X134.694 Y124.783 E6.1087
G1 X134.117 Y125.719 E6.19098
G1 X133.691 Y126.36 E6.24858
G1 X133.106 Y127.184 E6.32421
G1 X132.647 Y127.788 E6.38098
G1 X131.895 Y128.714 E6.47025
G1 X131.476 Y129.194 E6.51793
G1 X130.791 Y129.938 E6.59361
G1 X130.259 Y130.481 E6.6505
G1 X129.502 Y131.206 E6.72894
G1 X128.928 Y131.719 E6.78655
G1 X128.064 Y132.444 E6.87096
G1 X127.528 Y132.865 E6.92196
G1 X126.72 Y133.462 E6.99714
G1 X126.064 Y133.914 E7.05676
G1 X125.216 Y134.462 E7.13232
G1 X124.556 Y134.858 E7.18992
G1 X123.652 Y135.363 E7.26741
G1 X122.988 Y135.707 E7.32337
G1 X121.897 Y136.225 E7.41375
G1 X121.307 Y136.482 E7.46191
G1 X120.291 Y136.89 E7.54385
G1 X119.816 Y137.065 E7.58173
G1 X118.642 Y137.454 E7.67428
G1 X117.922 Y137.666 E7.73045
G1 X116.967 Y137.916 E7.80433
G1 X116.321 Y138.065 E7.85394
G1 X115.174 Y138.29 E7.94141
G1 X114.419 Y138.412 E7.99865
G1 X113.256 Y138.56 E8.08638
G1 X112.618 Y138.62 E8.13434
G1 X111.608 Y138.686 E8.21008
G1 X110.953 Y138.709 E8.25913
G1 X109.802 Y138.713 E8.34526
G1 X109.046 Y138.691 E8.40186
G1 X107.991 Y138.626 E8.48097
G1 X107.238 Y138.555 E8.53757
G1 X106.089 Y138.408 E8.62425
G1 X105.586 Y138.328 E8.66237
G1 X104.307 Y138.084 E8.75981
G1 X103.669 Y137.939 E8.80877
G1 X102.675 Y137.682 E8.8856
G1 X101.933 Y137.465 E8.94346
G1 X100.871 Y137.115 E9.02714
G1 X100.271 Y136.896 E9.07494
G1 X99.291 Y136.506 E9.15387
G1 X98.674 Y136.239 E9.20418
G1 X97.535 Y135.699 E9.29851
G1 X97.07 Y135.46 E9.33764
G1 X95.732 Y134.717 E9.45217
G1 X94.418 Y133.875 E9.56896
G1 X93.916 Y133.529 E9.61459
G1 X92.956 Y132.822 E9.70381
G1 X92.481 Y132.446 E9.74914
G1 X91.674 Y131.771 E9.82788
G1 X91.091 Y131.25 E9.88639
G1 X90.251 Y130.449 E9.97325
G1 X89.822 Y130.012 E10.01908
G1 X89.031 Y129.157 E10.10624
G1 X88.694 Y128.768 E10.14476
G1 X87.872 Y127.759 E10.24215
G1 X87.534 Y127.316 E10.28385
G1 X86.843 Y126.347 E10.37292
G1 X86.462 Y125.775 E10.42435
G1 X85.906 Y124.881 E10.50314
G1 X85.591 Y124.341 E10.54992
G1 X85.049 Y123.335 E10.63544
G1 X84.682 Y122.597 E10.69712
G1 X84.279 Y121.716 E10.76962
G1 X83.974 Y120.993 E10.82834
G1 X83.604 Y120.03 E10.90554
G1 X83.354 Y119.309 E10.96265
G1 X82.926 Y117.934 E11.07042
G1 X82.568 Y116.464 E11.18364
G1 X82.464 Y115.974 E11.22113
G1 X82.229 Y114.644 E11.3222
G1 X82.141 Y114.021 E11.36929
G1 X82.017 Y112.913 E11.45272
G1 X81.967 Y112.275 E11.50061
G1 X81.914 Y111.21 E11.58041
G1 X81.901 Y110.465 E11.63617
G1 X81.916 Y109.424 E11.71408
G1 X81.95 Y108.679 E11.76989
G1 X82.033 Y107.624 E11.84909
G1 X82.122 Y106.821 E11.90955
G1 X82.318 Y105.459 E12.01252
G1 X82.6 Y104.087 E12.11734
G1 X82.79 Y103.302 E12.17779
G1 X83.085 Y102.234 E12.2607
G1 X83.28 Y101.607 E12.30984
G1 X83.625 Y100.605 E12.38915
G1 X83.837 Y100.044 E12.43403
G1 X84.343 Y98.833 E12.53225
G1 X84.625 Y98.217 E12.58295
G1 X85.12 Y97.22 E12.66625
G1 X85.422 Y96.657 E12.71406
G1 X85.942 Y95.754 E12.79204
G1 X86.341 Y95.108 E12.84886
G1 X86.908 Y94.251 E12.92576
G1 X87.373 Y93.597 E12.98581
G1 X88.063 Y92.692 E13.07098
G1 X88.479 Y92.181 E13.12029
G1 X89.13 Y91.428 E13.19478
G1 X89.676 Y90.835 E13.2551
G1 X90.466 Y90.033 E13.33935
M205 X10 Y10
G0 F6000 X90.81 Y90.536
M205 X5 Y5
G1 F1800 X91.348 Y90.021 E13.39508
G1 X92.378 Y89.1 E13.49848
G1 X93.498 Y88.214 E13.60535
G1 X94.063 Y87.797 E13.6579
G1 X94.909 Y87.213 E13.73483
G1 X95.57 Y86.787 E13.79368
G1 X96.474 Y86.245 E13.87256
G1 X96.931 Y85.99 E13.91172
G1 X98.075 Y85.398 E14.00812
G1 X98.639 Y85.131 E14.05482
G1 X99.558 Y84.727 E14.12994
G1 X100.27 Y84.441 E14.18736
G1 X101.224 Y84.092 E14.26338
G1 X101.885 Y83.874 E14.31547
G1 X103.013 Y83.542 E14.40347
G1 X103.606 Y83.389 E14.4493
G1 X104.629 Y83.156 E14.52781
G1 X105.317 Y83.022 E14.58027
G1 X106.454 Y82.84 E14.66644
G1 X107.002 Y82.769 E14.70779
G1 X108.122 Y82.66 E14.792
G1 X108.715 Y82.62 E14.83648
G1 X109.963 Y82.578 E14.92993
G1 X110.61 Y82.577 E14.97835
G1 X111.607 Y82.607 E15.05299
G1 X112.317 Y82.651 E15.10623
G1 X113.391 Y82.751 E15.18695
G1 X114.092 Y82.84 E15.23983
G1 X115.233 Y83.022 E15.32629
G1 X115.737 Y83.119 E15.3647
G1 X116.852 Y83.368 E15.4502
G1 X117.499 Y83.535 E15.50021
G1 X118.651 Y83.871 E15.59001
G1 X119.234 Y84.063 E15.63594
G1 X120.209 Y84.416 E15.71354
G1 X120.868 Y84.678 E15.76661
G1 X121.959 Y85.155 E15.85572
G1 X122.432 Y85.38 E15.89492
G1 X123.495 Y85.926 E15.98435
G1 X123.939 Y86.172 E16.02233
G1 X125.047 Y86.833 E16.11889
G1 X125.569 Y87.169 E16.16534
G1 X126.483 Y87.799 E16.24842
G1 X126.915 Y88.116 E16.28852
G1 X127.876 Y88.869 E16.37988
G1 X128.366 Y89.281 E16.42779
G1 X129.428 Y90.231 E16.53442
G1 X130.379 Y91.193 E16.63565
G1 X130.911 Y91.766 E16.69417
G1 X131.57 Y92.525 E16.76939
G1 X131.934 Y92.968 E16.8123
G1 X132.72 Y93.998 E16.90926
G1 X133.093 Y94.523 E16.95745
G1 X133.641 Y95.344 E17.03132
G1 X133.973 Y95.874 E17.07812
G1 X134.565 Y96.892 E17.16625
G1 X134.891 Y97.498 E17.21774
G1 X135.353 Y98.427 E17.29539
G1 X135.625 Y99.017 E17.34401
G1 X136.105 Y100.156 E17.43651
G1 X136.32 Y100.722 E17.48182
G1 X136.698 Y101.813 E17.56822
G1 X136.856 Y102.315 E17.60761
G1 X137.162 Y103.412 E17.69283
G1 X137.332 Y104.111 E17.74667
G1 X137.544 Y105.113 E17.82331
G1 X137.67 Y105.822 E17.8772
G1 X137.824 Y106.883 E17.95744
G1 X137.898 Y107.522 E18.00558
G1 X137.993 Y108.688 E18.09312
G1 X138.02 Y109.228 E18.13358
G1 X138.048 Y110.744 E18.24705
G1 X137.977 Y112.247 E18.35966
G1 X137.925 Y112.894 E18.40823
G1 X137.815 Y113.888 E18.48307
G1 X137.711 Y114.622 E18.53855
G1 X137.536 Y115.624 E18.61467
G1 X137.387 Y116.342 E18.66955
G1 X137.138 Y117.374 E18.74899
G1 X136.947 Y118.066 E18.80271
G1 X136.611 Y119.148 E18.8875
G1 X136.419 Y119.703 E18.93145
G1 X136.047 Y120.684 E19.00996
G1 X135.762 Y121.364 E19.06514
G1 X135.278 Y122.427 E19.15255
G1 X135.035 Y122.918 E19.19355
G1 X134.506 Y123.908 E19.27755
G1 X134.238 Y124.376 E19.31791
G1 X133.545 Y125.5 E19.41672
G1 X133.259 Y125.93 E19.45537
G1 X132.617 Y126.836 E19.53847
G1 X132.181 Y127.411 E19.59247
G1 X131.516 Y128.233 E19.67159
G1 X131.099 Y128.716 E19.71935
G1 X130.278 Y129.607 E19.81001
G1 X129.844 Y130.047 E19.85627
G1 X129.087 Y130.772 E19.93471
G1 X128.542 Y131.26 E19.98945
G1 X127.772 Y131.908 E20.06476
G1 X127.255 Y132.318 E20.11414
G1 X126.272 Y133.044 E20.2056
G1 X125.738 Y133.41 E20.25404
G1 X124.797 Y134.016 E20.3378
G1 X124.352 Y134.283 E20.37664
G1 X123.271 Y134.887 E20.46931
G1 X122.73 Y135.166 E20.51486
G1 X121.753 Y135.632 E20.59586
G1 X121.172 Y135.888 E20.64338
G1 X120.084 Y136.327 E20.73118
G1 X119.609 Y136.502 E20.76906
G1 X118.454 Y136.884 E20.8601
G1 X117.864 Y137.059 E20.90615
G1 X116.711 Y137.361 E20.99535
G1 X116.188 Y137.48 E21.03549
G1 X114.954 Y137.72 E21.12956
G1 X114.342 Y137.817 E21.17593
G1 X113.199 Y137.963 E21.26217
G1 X112.682 Y138.013 E21.30104
G1 X111.569 Y138.087 E21.38451
G1 X110.833 Y138.111 E21.43962
G1 X109.697 Y138.112 E21.52463
G1 X109.189 Y138.097 E21.56267
G1 X107.924 Y138.019 E21.65751
G1 X107.313 Y137.96 E21.70345
G1 X106.287 Y137.83 E21.78084
G1 X105.582 Y137.718 E21.83427
G1 X104.542 Y137.52 E21.91349
G1 X103.819 Y137.358 E21.96894
G1 X102.725 Y137.074 E22.05352
G1 X102.222 Y136.927 E22.09274
G1 X101.171 Y136.584 E22.17547
G1 X100.589 Y136.375 E22.22175
G1 X99.414 Y135.907 E22.3164
G1 X98.819 Y135.646 E22.36502
G1 X97.904 Y135.212 E22.44081
G1 X97.344 Y134.926 E22.48787
G1 X96.338 Y134.369 E22.57392
G1 X95.853 Y134.082 E22.61609
G1 X94.757 Y133.379 E22.71354
G1 X94.271 Y133.045 E22.75767
G1 X93.135 Y132.209 E22.86322
G1 X91.976 Y131.239 E22.97632
G1 X91.579 Y130.884 E23.01618
G1 X90.498 Y129.855 E23.12786
G1 X89.485 Y128.764 E23.23928
G1 X89.084 Y128.299 E23.28523
G1 X88.349 Y127.395 E23.37242
G1 X88.011 Y126.952 E23.41412
G1 X87.396 Y126.092 E23.49324
G1 X86.972 Y125.458 E23.55032
G1 X86.416 Y124.564 E23.6291
G1 X86.058 Y123.947 E23.68249
G1 X85.577 Y123.051 E23.75859
G1 X85.228 Y122.348 E23.81733
G1 X84.825 Y121.467 E23.88983
G1 X84.535 Y120.778 E23.94577
G1 X84.127 Y119.713 E24.03112
G1 X83.958 Y119.226 E24.06969
G1 X83.505 Y117.779 E24.18316
G1 X83.155 Y116.339 E24.29406
G1 X83.029 Y115.738 E24.34002
G1 X82.839 Y114.663 E24.42171
G1 X82.737 Y113.953 E24.47539
G1 X82.625 Y112.967 E24.54965
G1 X82.566 Y112.245 E24.60386
G1 X82.509 Y111.069 E24.69197
G1 X82.501 Y110.473 E24.73658
G1 X82.516 Y109.432 E24.81449
G1 X82.541 Y108.838 E24.85898
G1 X82.631 Y107.671 E24.94657
G1 X82.703 Y107.007 E24.99656
G1 X82.874 Y105.805 E25.08741
G1 X82.979 Y105.215 E25.13226
G1 X83.187 Y104.209 E25.20914
G1 X83.368 Y103.461 E25.26673
G1 X83.658 Y102.411 E25.34825
G1 X83.814 Y101.905 E25.38787
G1 X84.229 Y100.701 E25.48318
G1 X84.437 Y100.159 E25.52662
G1 X84.889 Y99.081 E25.6141
G1 X85.116 Y98.581 E25.65519
G1 X85.649 Y97.502 E25.74525
G1 X85.942 Y96.956 E25.79163
G1 X86.462 Y96.053 E25.86961
G1 X86.842 Y95.439 E25.92364
G1 X87.471 Y94.491 E26.00878
G1 X87.788 Y94.045 E26.04973
G1 X88.529 Y93.07 E26.14138
G1 X88.862 Y92.658 E26.18102
G1 X89.651 Y91.745 E26.27132
G1 X90.104 Y91.255 E26.32126
G1 X90.81 Y90.536 E26.39667
M205 X10 Y10
G1 F1800 E25.89667
G1 F600 Z0.7
;MESH:qtip dispenser.stl
G0 F6000 X109.168 Y133.416 Z0.7
M205 X5 Y5
;TYPE:WALL-INNER
G1 F600 Z0.3
G1 F1800 E26.39667
G1 X110.629 Y133.439 E26.49235
G1 X112.094 Y133.369 E26.58839
G1 X113.558 Y133.207 E26.68484
G1 X114.994 Y132.954 E26.78032
G1 X116.42 Y132.607 E26.87642
G1 X117.82 Y132.173 E26.97239
G1 X119.186 Y131.65 E27.06817
G1 X120.528 Y131.04 E27.1647
G1 X121.812 Y130.352 E27.26009
G1 X123.057 Y129.578 E27.35608
G1 X124.253 Y128.728 E27.45216
G1 X125.391 Y127.803 E27.54819
G1 X126.467 Y126.81 E27.64406
G1 X127.48 Y125.749 E27.74012
G1 X128.421 Y124.629 E27.83591
G1 X129.291 Y123.446 E27.93206
G1 X130.083 Y122.216 E28.02786
G1 X130.796 Y120.934 E28.12391
G1 X131.428 Y119.612 E28.21986
G1 X131.978 Y118.239 E28.31671
G1 X132.428 Y116.861 E28.41164
G1 X132.797 Y115.439 E28.50783
G1 X133.075 Y114.002 E28.60367
G1 X133.261 Y112.547 E28.69972
G1 X133.356 Y111.086 E28.79559
G1 X133.356 Y110.348 E28.84392
G1 X133.356 Y109.614 E28.89198
G1 X133.262 Y108.158 E28.98752
G1 X133.077 Y106.703 E29.08356
G1 X132.799 Y105.266 E29.1794
G1 X132.435 Y103.859 E29.27457
G1 X131.976 Y102.453 E29.37142
G1 X131.431 Y101.093 E29.46735
G1 X130.799 Y99.764 E29.56372
G1 X130.089 Y98.488 E29.65933
G1 X129.297 Y97.257 E29.75518
G1 X128.428 Y96.075 E29.85125
G1 X127.487 Y94.954 E29.94709
G1 X126.475 Y93.891 E30.04319
G1 X125.399 Y92.897 E30.13911
G1 X124.262 Y91.972 E30.23509
G1 X123.068 Y91.122 E30.33106
G1 X121.824 Y90.349 E30.42697
G1 X120.532 Y89.657 E30.52294
G1 X119.202 Y89.048 E30.61872
G1 X117.832 Y88.525 E30.71475
G1 X116.431 Y88.09 E30.81081
G1 X115.007 Y87.742 E30.90679
G1 X113.563 Y87.487 E31.00281
G1 X112.107 Y87.324 E31.09875
G1 X110.644 Y87.254 E31.19466
G1 X109.182 Y87.278 E31.2904
G1 X107.72 Y87.394 E31.38644
G1 X106.269 Y87.601 E31.48241
G1 X104.833 Y87.902 E31.57848
G1 X103.427 Y88.289 E31.67397
G1 X102.034 Y88.77 E31.77047
G1 X100.678 Y89.338 E31.86674
G1 X99.37 Y89.988 E31.96238
G1 X98.099 Y90.721 E32.05846
G1 X96.88 Y91.531 E32.15429
G1 X95.713 Y92.419 E32.25032
G1 X94.607 Y93.377 E32.34613
G1 X93.561 Y94.406 E32.44221
G1 X92.584 Y95.497 E32.53811
G1 X91.676 Y96.65 E32.63421
G1 X90.844 Y97.856 E32.73015
G1 X90.091 Y99.114 E32.82615
G1 X89.42 Y100.416 E32.92206
G1 X88.825 Y101.771 E33.01897
G1 X88.332 Y103.132 E33.11375
G1 X87.919 Y104.542 E33.20996
G1 X87.594 Y105.971 E33.30592
G1 X87.363 Y107.419 E33.40194
G1 X87.222 Y108.876 E33.49779
G1 X87.176 Y110.342 E33.59383
G1 X87.222 Y111.81 E33.69
G1 X87.362 Y113.263 E33.78559
G1 X87.592 Y114.712 E33.88166
G1 X87.916 Y116.144 E33.9778
G1 X88.326 Y117.547 E34.07351
G1 X88.828 Y118.922 E34.16936
G1 X89.416 Y120.267 E34.26548
G1 X90.086 Y121.571 E34.36148
G1 X90.838 Y122.828 E34.45739
G1 X91.668 Y124.034 E34.55326
G1 X92.575 Y125.188 E34.64937
G1 X93.551 Y126.279 E34.74522
G1 X94.597 Y127.309 E34.84135
G1 X95.702 Y128.268 E34.93715
G1 X96.869 Y129.156 E35.03318
G1 X98.088 Y129.967 E35.12905
G1 X99.359 Y130.7 E35.22513
G1 X100.674 Y131.353 E35.32126
G1 X102.023 Y131.92 E35.41708
G1 X103.405 Y132.397 E35.51282
G1 X104.821 Y132.789 E35.60903
G1 X106.256 Y133.091 E35.70505
G1 X107.707 Y133.299 E35.80103
G1 X109.168 Y133.416 E35.89701
M205 X10 Y10
G0 F6000 X109.143 Y133.941
M205 X5 Y5
G1 F1800 X110.638 Y133.964 E35.99491
G1 X112.135 Y133.893 E36.09305
G1 X113.632 Y133.727 E36.19167
G1 X115.102 Y133.468 E36.28941
G1 X116.56 Y133.113 E36.38767
G1 X117.991 Y132.669 E36.48578
G1 X119.389 Y132.135 E36.58378
G1 X120.761 Y131.51 E36.6825
G1 X122.075 Y130.807 E36.78008
G1 X123.348 Y130.016 E36.87822
G1 X124.571 Y129.146 E36.9765
G1 X125.735 Y128.201 E37.07467
G1 X126.836 Y127.185 E37.17277
G1 X127.871 Y126.099 E37.27101
G1 X128.834 Y124.953 E37.36903
G1 X129.723 Y123.744 E37.46729
G1 X130.534 Y122.486 E37.5653
